X: 28641
T: Music Room, The
R: reel
M: 4/4
K: Gmajor
G2 B/A/G FGAF|Gg ~g2 fgag|fd ~d2 ABcA|dBcA GDEF|
G2 B/A/G FGAF|Gg ~g2 fgag|fd ~d2 ABcA|1 dBcA GDEF:|2 dBcA GABc||
dg ~g2 bgag|fd ~d2 ABcA|DGBd cADF|ADFA GABc|
dg ~g2 bgag|fd ~d2 ABcA|DGBd cADF|1 ADFA GABc:|2 AGGF GDEF||

